X:6575
T:Vals e Kristian Oskarsson & Gustav Persa
A:Jmtland
M:3/4
O:Sweden
R:Waltz
Z:Richard Robinson 
%%TUNEURL: http://www.leeds.ac.uk/music/Info/RRTuneBk/gettune/000008ef.html
%%ID:000008ef
K:D
AF | \
D2F2A2 | d2f2a2 | b2 gb fa |\
ba gf ed |1 cB AG FE :|2 A2B2c2 | d4 :|
|:A2 |\
A2F2F2 | F4 d2 | d2B2B2 | B4B2 |\
c2A2A2 | c4c2 | eg bg af | eg bg af | d6 :|
